X: 1704
T: Antique Dealer, The
R: jig
M: 6/8
K: Gmajor
|:Aee dee|Bee dBG|Aee dee|fga fed|
Aee dee|Bee dBG|fga fed|1 BAG A2 B:|2 BAG A Bd||
|:efe ede|fgf fed|efe ede|gfe dBd|
efe ede|fgf fed|efe bag|1 fed eBd:|2 fed e2 z||

